X:29
T:Caber Feigh 
C:Joe Buchanan's Scottish Tome - Page 010.2
I:010 2
R:Hornpipe
Z:Carl Allison
L:1/8
M:4/4
K:C
G2|c2ed c2GB|c2GF ECCA|defe d2A^c|d2AG FDDB|
c2ed c2GB|c2GF ECCE|DEFG ABcA|{c}d2AG FDD|]
f2 | ecgc acgc|ecgc eccd|fdad bdad|fgag fddf|
ecgc acgc|GAcd eccg|afge fde^c|{c}d2AG FDD|]

